src/assets/images/ButtonUploadPembayaran.svg

<svg width="262" height="200" viewBox="0 0 262 211" fill="none" xmlns="http://www.w3.org/2000/svg">
<path d="M39.2485 124.334L37.2255 122.43C36.7155 123.144 35.8145 123.654 34.6755 123.654C32.6695 123.654 31.2585 122.158 31.2585 119.965C31.2585 117.84 32.7035 116.276 34.7265 116.276C35.6445 116.276 36.6135 116.633 37.1575 117.381L39.1295 115.409C38.1265 114.253 36.3075 113.641 34.6245 113.641C30.9525 113.641 28.0965 116.106 28.0965 119.965C28.0965 123.739 30.8675 126.323 34.5735 126.323C36.5965 126.323 38.1945 125.558 39.2485 124.334ZM43.1974 126V113.148H40.3754V126H43.1974ZM48.4309 114.831C48.4309 113.981 47.7169 113.301 46.8329 113.301C45.9319 113.301 45.2349 114.015 45.2349 114.831C45.2349 115.664 45.9319 116.361 46.8329 116.361C47.7169 116.361 48.4309 115.698 48.4309 114.831ZM48.2269 126V117.534H45.4389V126H48.2269ZM57.8812 118.401C57.2182 117.721 55.9432 117.262 54.7362 117.262C52.1012 117.262 50.0102 119.013 50.0102 121.767C50.0102 124.572 52.0842 126.272 54.7532 126.272C55.9942 126.272 57.1842 125.864 57.8812 125.184L56.3342 123.297C55.9942 123.705 55.3822 123.926 54.8212 123.926C53.5972 123.926 52.8322 122.94 52.8322 121.767C52.8322 120.594 53.6142 119.591 54.7872 119.591C55.3482 119.591 55.9602 119.863 56.2662 120.271L57.8812 118.401ZM64.68 121.359L67.944 117.534H64.561L61.858 120.968H61.807V113.148H59.002V126H61.807V121.937H61.858L64.629 126H68.08L64.68 121.359ZM81.6073 126V117.534H78.8193V122.107C78.8193 123.076 78.2923 123.926 77.3233 123.926C76.3033 123.926 76.0653 123.076 76.0653 122.124V117.534H73.2603V122.77C73.2603 124.47 74.0593 126.238 76.3373 126.238C77.5273 126.238 78.4963 125.575 78.8873 124.827H78.9213V126H81.6073ZM92.1517 126V120.764C92.1517 119.064 91.3357 117.296 89.0577 117.296C87.8847 117.296 86.9157 117.959 86.5247 118.707H86.4907V117.534H83.7877V126H86.5927V121.41C86.5927 120.441 87.1027 119.591 88.0887 119.591C89.0917 119.591 89.3467 120.441 89.3467 121.376V126H92.1517ZM99.2783 119.625V117.534H97.2893V115.307H94.5523V117.534H93.2093V119.625H94.5693V123.195C94.5693 124.997 95.3173 126.204 97.5783 126.204C98.1733 126.204 98.8193 126.085 99.1933 125.949L99.1593 123.909C98.9553 123.994 98.6153 124.045 98.3433 124.045C97.5443 124.045 97.2893 123.637 97.2893 122.855V119.625H99.2783ZM108.85 126V117.534H106.062V122.107C106.062 123.076 105.535 123.926 104.566 123.926C103.546 123.926 103.308 123.076 103.308 122.124V117.534H100.503V122.77C100.503 124.47 101.302 126.238 103.58 126.238C104.77 126.238 105.739 125.575 106.13 124.827H106.164V126H108.85ZM116.726 121.359L119.99 117.534H116.607L113.904 120.968H113.853V113.148H111.048V126H113.853V121.937H113.904L116.675 126H120.126L116.726 121.359ZM138.991 126V120.764C138.991 119.166 138.209 117.296 135.914 117.296C134.656 117.296 133.772 117.857 133.211 118.741C132.735 117.823 131.885 117.296 130.661 117.296C129.386 117.296 128.519 117.993 128.128 118.707H128.094V117.534H125.391V126H128.196V121.41C128.196 120.39 128.706 119.591 129.59 119.591C130.423 119.591 130.797 120.203 130.797 121.172V126H133.585V121.427C133.585 120.475 134.044 119.591 134.996 119.591C135.982 119.591 136.203 120.407 136.203 121.376V126H138.991ZM143.34 120.798C143.408 119.931 144.19 119.183 145.261 119.183C146.366 119.183 146.927 119.914 146.927 120.798H143.34ZM149.494 121.869C149.494 118.979 147.743 117.262 145.244 117.262C142.677 117.262 140.671 119.03 140.671 121.801C140.671 124.657 142.779 126.272 145.329 126.272C147.046 126.272 148.372 125.626 149.171 124.47L147.233 123.246C146.859 123.756 146.247 124.13 145.363 124.13C144.36 124.13 143.425 123.467 143.34 122.532H149.477C149.494 122.328 149.494 122.09 149.494 121.869ZM159.587 126V120.764C159.587 119.064 158.771 117.296 156.493 117.296C155.32 117.296 154.351 117.959 153.96 118.707H153.926V117.534H151.223V126H154.028V121.41C154.028 120.441 154.538 119.591 155.524 119.591C156.527 119.591 156.782 120.441 156.782 121.376V126H159.587ZM170.675 125.201V117.534H168.04V118.622H168.006C167.411 117.721 166.357 117.296 165.303 117.296C162.753 117.296 161.274 119.387 161.274 121.733C161.274 124.079 162.753 126.085 165.32 126.085C166.442 126.085 167.36 125.643 167.887 124.963H167.938V125.473C167.938 126.884 167.173 127.836 165.541 127.836C164.589 127.836 163.552 127.479 162.736 126.765L161.342 128.754C162.481 129.604 164.215 130.08 165.694 130.08C168.703 130.08 170.675 128.516 170.675 125.201ZM168.023 121.716C168.023 122.872 167.241 123.875 165.966 123.875C164.708 123.875 163.977 122.838 163.977 121.716C163.977 120.543 164.708 119.574 165.966 119.574C167.224 119.574 168.023 120.56 168.023 121.716ZM176.73 122.651V120.441H172.412V122.651H176.73ZM186.695 126V117.534H183.907V122.107C183.907 123.076 183.38 123.926 182.411 123.926C181.391 123.926 181.153 123.076 181.153 122.124V117.534H178.348V122.77C178.348 124.47 179.147 126.238 181.425 126.238C182.615 126.238 183.584 125.575 183.975 124.827H184.009V126H186.695ZM198.294 121.733C198.294 119.37 196.747 117.296 194.282 117.296C193.041 117.296 192.089 117.891 191.579 118.571H191.528V117.534H188.876V130.08H191.664V125.065H191.698C192.225 125.796 193.228 126.238 194.265 126.238C196.815 126.238 198.294 124.096 198.294 121.733ZM195.591 121.733C195.591 122.838 194.928 123.926 193.602 123.926C192.344 123.926 191.562 122.855 191.562 121.75C191.562 120.679 192.344 119.574 193.602 119.574C194.928 119.574 195.591 120.645 195.591 121.733ZM202.904 126V113.148H200.082V126H202.904ZM214.088 121.733C214.088 118.962 211.946 117.262 209.379 117.262C206.829 117.262 204.687 118.962 204.687 121.733C204.687 124.504 206.829 126.272 209.379 126.272C211.946 126.272 214.088 124.504 214.088 121.733ZM211.402 121.733C211.402 122.821 210.705 123.926 209.396 123.926C208.087 123.926 207.39 122.821 207.39 121.733C207.39 120.645 208.07 119.574 209.379 119.574C210.688 119.574 211.402 120.645 211.402 121.733ZM220.851 122.6C220.851 123.654 220.222 124.334 219.1 124.334C218.539 124.334 217.893 124.113 217.893 123.467C217.893 122.464 219.27 122.311 220.494 122.311H220.851V122.6ZM217.145 120.203C217.655 119.727 218.437 119.336 219.236 119.336C220.103 119.336 220.766 119.727 220.766 120.56V120.696C218.301 120.696 215.326 121.104 215.326 123.552C215.326 125.541 217.06 126.204 218.403 126.204C219.406 126.204 220.375 125.796 220.8 125.099H220.851V126H223.401V121.733C223.401 118.656 222.347 117.262 219.508 117.262C218.131 117.262 216.72 117.755 215.734 118.69L217.145 120.203ZM234.458 126V113.148H231.67V118.435H231.636C231.16 117.874 230.293 117.296 229.052 117.296C226.587 117.296 225.057 119.37 225.057 121.733C225.057 124.096 226.536 126.238 229.086 126.238C230.208 126.238 231.313 125.745 231.857 124.895H231.891V126H234.458ZM231.789 121.75C231.789 122.855 231.007 123.926 229.749 123.926C228.423 123.926 227.743 122.838 227.743 121.733C227.743 120.645 228.423 119.574 229.749 119.574C231.007 119.574 231.789 120.679 231.789 121.75ZM90.1593 141.733C90.1593 139.37 88.6123 137.296 86.1473 137.296C84.9063 137.296 83.9543 137.891 83.4443 138.571H83.3933V137.534H80.7413V150.08H83.5293V145.065H83.5633C84.0903 145.796 85.0933 146.238 86.1303 146.238C88.6803 146.238 90.1593 144.096 90.1593 141.733ZM87.4563 141.733C87.4563 142.838 86.7933 143.926 85.4673 143.926C84.2093 143.926 83.4273 142.855 83.4273 141.75C83.4273 140.679 84.2093 139.574 85.4673 139.574C86.7933 139.574 87.4563 140.645 87.4563 141.733ZM94.1582 140.798C94.2262 139.931 95.0082 139.183 96.0792 139.183C97.1842 139.183 97.7452 139.914 97.7452 140.798H94.1582ZM100.312 141.869C100.312 138.979 98.5612 137.262 96.0622 137.262C93.4952 137.262 91.4892 139.03 91.4892 141.801C91.4892 144.657 93.5972 146.272 96.1472 146.272C97.8642 146.272 99.1902 145.626 99.9892 144.47L98.0512 143.246C97.6772 143.756 97.0652 144.13 96.1812 144.13C95.1782 144.13 94.2432 143.467 94.1582 142.532H100.295C100.312 142.328 100.312 142.09 100.312 141.869ZM115.641 146V140.764C115.641 139.166 114.859 137.296 112.564 137.296C111.306 137.296 110.422 137.857 109.861 138.741C109.385 137.823 108.535 137.296 107.311 137.296C106.036 137.296 105.169 137.993 104.778 138.707H104.744V137.534H102.041V146H104.846V141.41C104.846 140.39 105.356 139.591 106.24 139.591C107.073 139.591 107.447 140.203 107.447 141.172V146H110.235V141.427C110.235 140.475 110.694 139.591 111.646 139.591C112.632 139.591 112.853 140.407 112.853 141.376V146H115.641ZM127.181 141.733C127.181 139.37 125.651 137.296 123.186 137.296C121.945 137.296 121.078 137.874 120.602 138.435H120.568V133.148H117.78V146H120.347V144.895H120.381C120.925 145.745 122.03 146.238 123.152 146.238C125.702 146.238 127.181 144.096 127.181 141.733ZM124.495 141.733C124.495 142.838 123.815 143.926 122.489 143.926C121.231 143.926 120.449 142.855 120.449 141.75C120.449 140.679 121.231 139.574 122.489 139.574C123.815 139.574 124.495 140.645 124.495 141.733ZM133.95 142.6C133.95 143.654 133.321 144.334 132.199 144.334C131.638 144.334 130.992 144.113 130.992 143.467C130.992 142.464 132.369 142.311 133.593 142.311H133.95V142.6ZM130.244 140.203C130.754 139.727 131.536 139.336 132.335 139.336C133.202 139.336 133.865 139.727 133.865 140.56V140.696C131.4 140.696 128.425 141.104 128.425 143.552C128.425 145.541 130.159 146.204 131.502 146.204C132.505 146.204 133.474 145.796 133.899 145.099H133.95V146H136.5V141.733C136.5 138.656 135.446 137.262 132.607 137.262C131.23 137.262 129.819 137.755 128.833 138.69L130.244 140.203ZM147.149 137.534H144.191L142.508 142.974H142.457L140.57 137.534H137.476L141.012 145.864L140.74 146.561C140.468 147.292 140.179 147.7 139.312 147.7C139.04 147.7 138.683 147.632 138.411 147.547L138.105 149.893C138.513 149.995 139.108 150.08 139.635 150.08C141.76 150.08 142.678 149.043 143.358 147.275L147.149 137.534ZM153.225 142.6C153.225 143.654 152.596 144.334 151.474 144.334C150.913 144.334 150.267 144.113 150.267 143.467C150.267 142.464 151.644 142.311 152.868 142.311H153.225V142.6ZM149.519 140.203C150.029 139.727 150.811 139.336 151.61 139.336C152.477 139.336 153.14 139.727 153.14 140.56V140.696C150.675 140.696 147.7 141.104 147.7 143.552C147.7 145.541 149.434 146.204 150.777 146.204C151.78 146.204 152.749 145.796 153.174 145.099H153.225V146H155.775V141.733C155.775 138.656 154.721 137.262 151.882 137.262C150.505 137.262 149.094 137.755 148.108 138.69L149.519 140.203ZM163.466 137.364C163.33 137.313 163.092 137.296 162.871 137.296C161.834 137.296 161.001 137.908 160.576 138.758H160.542V137.534H157.856V146H160.644V141.648C160.644 140.951 161.137 139.727 162.633 139.727C162.854 139.727 163.092 139.744 163.347 139.812L163.466 137.364ZM169.328 142.6C169.328 143.654 168.699 144.334 167.577 144.334C167.016 144.334 166.37 144.113 166.37 143.467C166.37 142.464 167.747 142.311 168.971 142.311H169.328V142.6ZM165.622 140.203C166.132 139.727 166.914 139.336 167.713 139.336C168.58 139.336 169.243 139.727 169.243 140.56V140.696C166.778 140.696 163.803 141.104 163.803 143.552C163.803 145.541 165.537 146.204 166.88 146.204C167.883 146.204 168.852 145.796 169.277 145.099H169.328V146H171.878V141.733C171.878 138.656 170.824 137.262 167.985 137.262C166.608 137.262 165.197 137.755 164.211 138.69L165.622 140.203ZM182.323 146V140.764C182.323 139.064 181.507 137.296 179.229 137.296C178.056 137.296 177.087 137.959 176.696 138.707H176.662V137.534H173.959V146H176.764V141.41C176.764 140.441 177.274 139.591 178.26 139.591C179.263 139.591 179.518 140.441 179.518 141.376V146H182.323Z" fill="#1A1A1A"/>
<g style="mix-blend-mode:multiply" opacity="0.4" filter="url(#filter0_d)">
<path fill-rule="evenodd" clip-rule="evenodd" d="M37.5614 0.974243H18.9744C11.2424 0.974243 4.97437 7.24225 4.97437 14.9742V30.7724H8.97437V14.9742C8.97437 9.4514 13.4515 4.97424 18.9744 4.97424H37.5614V0.974243ZM8.97437 172.889H4.97437V188.111C4.97437 195.843 11.2424 202.111 18.9744 202.111H37.5614V198.111H18.9744C13.4515 198.111 8.97437 193.634 8.97437 188.111V172.889ZM255.799 30.8073H257.011V14.9742C257.011 7.24226 250.743 0.974243 243.011 0.974243H224.423V4.97424H243.011C248.533 4.97424 253.011 9.4514 253.011 14.9742V30.7724H255.799V30.8073ZM257.011 172.889H253.011V188.111C253.011 193.634 248.533 198.111 243.011 198.111H224.423V202.111H243.011C250.743 202.111 257.011 195.843 257.011 188.111V172.889Z" fill="#1A1A1A"/>
</g>
<path fill-rule="evenodd" clip-rule="evenodd" d="M134.586 64.5858L121.858 77.3137C121.077 78.0948 121.077 79.3611 121.858 80.1421C122.639 80.9232 123.905 80.9232 124.686 80.1421L134 70.8284V100H138V70.8284L147.314 80.1421C148.095 80.9232 149.361 80.9232 150.142 80.1421C150.923 79.3611 150.923 78.0948 150.142 77.3137L137.414 64.5858C136.633 63.8047 135.367 63.8047 134.586 64.5858Z" fill="#C2C2C2"/>
<path fill-rule="evenodd" clip-rule="evenodd" d="M172.341 96H172.329L144 96V100H168.694H172.329L172.378 100L172.426 100H172.694V99.997C181.458 99.8285 188.51 92.6715 188.51 83.8674C188.51 75.1242 181.555 68.0055 172.876 67.7423C172.71 67.7373 172.544 67.7347 172.378 67.7347C171.179 67.7347 170.01 67.8656 168.886 68.1137C168.847 66.754 168.722 65.4163 168.514 64.1059C166.167 49.3105 153.353 38 137.898 38C126.636 38 116.777 44.0055 111.348 52.9888C110.659 54.1285 110.041 55.3161 109.501 56.5454C108.364 55.8578 107.163 55.2643 105.91 54.7756C103.275 53.7477 100.407 53.1837 97.4082 53.1837C84.4802 53.1837 74 63.6639 74 76.5918C74 89.5198 84.4802 100 97.4082 100L97.4412 100H137.86L137.898 100L137.936 100H138V96H137.936L137.931 96L137.898 96L137.865 96H137.86L97.4412 96L97.4357 96L97.4082 96C86.6893 96 78 87.3107 78 76.5918C78 65.873 86.6893 57.1837 97.4082 57.1837C101.084 57.1837 104.509 58.2015 107.432 59.9685L111.331 62.3259L113.164 58.154C117.345 48.6351 126.851 42 137.898 42C152.551 42 164.479 53.6734 164.887 68.2259L165.023 73.0623L169.747 72.0197C170.591 71.8336 171.47 71.7347 172.378 71.7347C179.078 71.7347 184.51 77.1667 184.51 83.8674C184.51 90.4882 179.206 95.871 172.617 95.9977L172.501 96L172.426 96L172.414 96L172.378 96L172.341 96Z" fill="#C2C2C2"/>
<defs>
<filter id="filter0_d" x="0.974365" y="0.974243" width="260.036" height="209.137" filterUnits="userSpaceOnUse" color-interpolation-filters="sRGB">
<feFlood flood-opacity="0" result="BackgroundImageFix"/>
<feColorMatrix in="SourceAlpha" type="matrix" values="0 0 0 0 0 0 0 0 0 0 0 0 0 0 0 0 0 0 127 0"/>
<feOffset dy="4"/>
<feGaussianBlur stdDeviation="2"/>
<feColorMatrix type="matrix" values="0 0 0 0 0 0 0 0 0 0 0 0 0 0 0 0 0 0 0.25 0"/>
<feBlend mode="normal" in2="BackgroundImageFix" result="effect1_dropShadow"/>
<feBlend mode="normal" in="SourceGraphic" in2="effect1_dropShadow" result="shape"/>
</filter>
</defs>
</svg>

<svg width="262" height="200" viewBox="0 0 262 211" fill="none" xmlns="http://www.w3.org/2000/svg"><path d="m39.248 124.334-2.023-1.904c-.51.714-1.41 1.224-2.55 1.224-2.005 0-3.416-1.496-3.416-3.689 0-2.125 1.444-3.689 3.468-3.689.918 0 1.887.357 2.43 1.105l1.973-1.972c-1.004-1.156-2.823-1.768-4.506-1.768-3.672 0-6.528 2.465-6.528 6.324 0 3.774 2.771 6.358 6.478 6.358 2.023 0 3.62-.765 4.675-1.989zm3.95 1.666v-12.852h-2.823V126h2.822zm5.233-11.169c0-.85-.714-1.53-1.598-1.53-.901 0-1.598.714-1.598 1.53 0 .833.697 1.53 1.598 1.53.884 0 1.598-.663 1.598-1.53zM48.227 126v-8.466h-2.788V126h2.788zm9.654-7.599c-.663-.68-1.938-1.139-3.145-1.139-2.635 0-4.726 1.751-4.726 4.505 0 2.805 2.074 4.505 4.743 4.505 1.241 0 2.431-.408 3.128-1.088l-1.547-1.887c-.34.408-.952.629-1.513.629-1.224 0-1.989-.986-1.989-2.159 0-1.173.782-2.176 1.955-2.176.561 0 1.173.272 1.48.68l1.614-1.87zm6.799 2.958 3.264-3.825h-3.383l-2.703 3.434h-.051v-7.82h-2.805V126h2.805v-4.063h.051L64.629 126h3.451l-3.4-4.641zM81.607 126v-8.466H78.82v4.573c0 .969-.527 1.819-1.496 1.819-1.02 0-1.258-.85-1.258-1.802v-4.59H73.26v5.236c0 1.7.8 3.468 3.077 3.468 1.19 0 2.16-.663 2.55-1.411h.034V126h2.686zm10.545 0v-5.236c0-1.7-.816-3.468-3.094-3.468-1.173 0-2.142.663-2.533 1.411h-.034v-1.173h-2.703V126h2.805v-4.59c0-.969.51-1.819 1.496-1.819 1.003 0 1.258.85 1.258 1.785V126h2.805zm7.126-6.375v-2.091H97.29v-2.227h-2.737v2.227H93.21v2.091h1.36v3.57c0 1.802.748 3.009 3.01 3.009.594 0 1.24-.119 1.614-.255l-.034-2.04c-.204.085-.544.136-.816.136-.799 0-1.054-.408-1.054-1.19v-3.23h1.99zM108.85 126v-8.466h-2.788v4.573c0 .969-.527 1.819-1.496 1.819-1.02 0-1.258-.85-1.258-1.802v-4.59h-2.805v5.236c0 1.7.799 3.468 3.077 3.468 1.19 0 2.159-.663 2.55-1.411h.034V126h2.686zm7.876-4.641 3.264-3.825h-3.383l-2.703 3.434h-.051v-7.82h-2.805V126h2.805v-4.063h.051l2.771 4.063h3.451l-3.4-4.641zM138.991 126v-5.236c0-1.598-.782-3.468-3.077-3.468-1.258 0-2.142.561-2.703 1.445-.476-.918-1.326-1.445-2.55-1.445-1.275 0-2.142.697-2.533 1.411h-.034v-1.173h-2.703V126h2.805v-4.59c0-1.02.51-1.819 1.394-1.819.833 0 1.207.612 1.207 1.581V126h2.788v-4.573c0-.952.459-1.836 1.411-1.836.986 0 1.207.816 1.207 1.785V126h2.788zm4.349-5.202c.068-.867.85-1.615 1.921-1.615 1.105 0 1.666.731 1.666 1.615h-3.587zm6.154 1.071c0-2.89-1.751-4.607-4.25-4.607-2.567 0-4.573 1.768-4.573 4.539 0 2.856 2.108 4.471 4.658 4.471 1.717 0 3.043-.646 3.842-1.802l-1.938-1.224c-.374.51-.986.884-1.87.884-1.003 0-1.938-.663-2.023-1.598h6.137c.017-.204.017-.442.017-.663zM159.587 126v-5.236c0-1.7-.816-3.468-3.094-3.468-1.173 0-2.142.663-2.533 1.411h-.034v-1.173h-2.703V126h2.805v-4.59c0-.969.51-1.819 1.496-1.819 1.003 0 1.258.85 1.258 1.785V126h2.805zm11.088-.799v-7.667h-2.635v1.088h-.034c-.595-.901-1.649-1.326-2.703-1.326-2.55 0-4.029 2.091-4.029 4.437s1.479 4.352 4.046 4.352c1.122 0 2.04-.442 2.567-1.122h.051v.51c0 1.411-.765 2.363-2.397 2.363a4.33 4.33 0 0 1-2.805-1.071l-1.394 1.989c1.139.85 2.873 1.326 4.352 1.326 3.009 0 4.981-1.564 4.981-4.879zm-2.652-3.485c0 1.156-.782 2.159-2.057 2.159-1.258 0-1.989-1.037-1.989-2.159 0-1.173.731-2.142 1.989-2.142s2.057.986 2.057 2.142zm8.707.935v-2.21h-4.318v2.21h4.318zm9.965 3.349v-8.466h-2.788v4.573c0 .969-.527 1.819-1.496 1.819-1.02 0-1.258-.85-1.258-1.802v-4.59h-2.805v5.236c0 1.7.799 3.468 3.077 3.468 1.19 0 2.159-.663 2.55-1.411h.034V126h2.686zm11.599-4.267c0-2.363-1.547-4.437-4.012-4.437-1.241 0-2.193.595-2.703 1.275h-.051v-1.037h-2.652v12.546h2.788v-5.015h.034c.527.731 1.53 1.173 2.567 1.173 2.55 0 4.029-2.142 4.029-4.505zm-2.703 0c0 1.105-.663 2.193-1.989 2.193-1.258 0-2.04-1.071-2.04-2.176 0-1.071.782-2.176 2.04-2.176 1.326 0 1.989 1.071 1.989 2.159zm7.313 4.267v-12.852h-2.822V126h2.822zm11.184-4.267c0-2.771-2.142-4.471-4.709-4.471-2.55 0-4.692 1.7-4.692 4.471s2.142 4.539 4.692 4.539c2.567 0 4.709-1.768 4.709-4.539zm-2.686 0c0 1.088-.697 2.193-2.006 2.193-1.309 0-2.006-1.105-2.006-2.193s.68-2.159 1.989-2.159c1.309 0 2.023 1.071 2.023 2.159zm9.449.867c0 1.054-.629 1.734-1.751 1.734-.561 0-1.207-.221-1.207-.867 0-1.003 1.377-1.156 2.601-1.156h.357v.289zm-3.706-2.397c.51-.476 1.292-.867 2.091-.867.867 0 1.53.391 1.53 1.224v.136c-2.465 0-5.44.408-5.44 2.856 0 1.989 1.734 2.652 3.077 2.652 1.003 0 1.972-.408 2.397-1.105h.051V126h2.55v-4.267c0-3.077-1.054-4.471-3.893-4.471-1.377 0-2.788.493-3.774 1.428l1.411 1.513zM234.458 126v-12.852h-2.788v5.287h-.034c-.476-.561-1.343-1.139-2.584-1.139-2.465 0-3.995 2.074-3.995 4.437 0 2.363 1.479 4.505 4.029 4.505 1.122 0 2.227-.493 2.771-1.343h.034V126h2.567zm-2.669-4.25c0 1.105-.782 2.176-2.04 2.176-1.326 0-2.006-1.088-2.006-2.193 0-1.088.68-2.159 2.006-2.159 1.258 0 2.04 1.105 2.04 2.176zm-141.63 19.983c0-2.363-1.547-4.437-4.012-4.437-1.24 0-2.193.595-2.703 1.275h-.05v-1.037H80.74v12.546h2.788v-5.015h.034c.527.731 1.53 1.173 2.567 1.173 2.55 0 4.03-2.142 4.03-4.505zm-2.703 0c0 1.105-.663 2.193-1.989 2.193-1.258 0-2.04-1.071-2.04-2.176 0-1.071.782-2.176 2.04-2.176 1.326 0 1.99 1.071 1.99 2.159zm6.702-.935c.068-.867.85-1.615 1.921-1.615 1.105 0 1.666.731 1.666 1.615h-3.587zm6.154 1.071c0-2.89-1.75-4.607-4.25-4.607-2.567 0-4.573 1.768-4.573 4.539 0 2.856 2.108 4.471 4.658 4.471 1.717 0 3.043-.646 3.842-1.802l-1.938-1.224c-.374.51-.986.884-1.87.884-1.003 0-1.938-.663-2.023-1.598h6.137c.017-.204.017-.442.017-.663zM115.641 146v-5.236c0-1.598-.782-3.468-3.077-3.468-1.258 0-2.142.561-2.703 1.445-.476-.918-1.326-1.445-2.55-1.445-1.275 0-2.142.697-2.533 1.411h-.034v-1.173h-2.703V146h2.805v-4.59c0-1.02.51-1.819 1.394-1.819.833 0 1.207.612 1.207 1.581V146h2.788v-4.573c0-.952.459-1.836 1.411-1.836.986 0 1.207.816 1.207 1.785V146h2.788zm11.54-4.267c0-2.363-1.53-4.437-3.995-4.437-1.241 0-2.108.578-2.584 1.139h-.034v-5.287h-2.788V146h2.567v-1.105h.034c.544.85 1.649 1.343 2.771 1.343 2.55 0 4.029-2.142 4.029-4.505zm-2.686 0c0 1.105-.68 2.193-2.006 2.193-1.258 0-2.04-1.071-2.04-2.176 0-1.071.782-2.176 2.04-2.176 1.326 0 2.006 1.071 2.006 2.159zm9.455.867c0 1.054-.629 1.734-1.751 1.734-.561 0-1.207-.221-1.207-.867 0-1.003 1.377-1.156 2.601-1.156h.357v.289zm-3.706-2.397c.51-.476 1.292-.867 2.091-.867.867 0 1.53.391 1.53 1.224v.136c-2.465 0-5.44.408-5.44 2.856 0 1.989 1.734 2.652 3.077 2.652 1.003 0 1.972-.408 2.397-1.105h.051V146h2.55v-4.267c0-3.077-1.054-4.471-3.893-4.471-1.377 0-2.788.493-3.774 1.428l1.411 1.513zm16.905-2.669h-2.958l-1.683 5.44h-.051l-1.887-5.44h-3.094l3.536 8.33-.272.697c-.272.731-.561 1.139-1.428 1.139-.272 0-.629-.068-.901-.153l-.306 2.346a6.85 6.85 0 0 0 1.53.187c2.125 0 3.043-1.037 3.723-2.805l3.791-9.741zm6.076 5.066c0 1.054-.629 1.734-1.751 1.734-.561 0-1.207-.221-1.207-.867 0-1.003 1.377-1.156 2.601-1.156h.357v.289zm-3.706-2.397c.51-.476 1.292-.867 2.091-.867.867 0 1.53.391 1.53 1.224v.136c-2.465 0-5.44.408-5.44 2.856 0 1.989 1.734 2.652 3.077 2.652 1.003 0 1.972-.408 2.397-1.105h.051V146h2.55v-4.267c0-3.077-1.054-4.471-3.893-4.471-1.377 0-2.788.493-3.774 1.428l1.411 1.513zm13.947-2.839c-.136-.051-.374-.068-.595-.068-1.037 0-1.87.612-2.295 1.462h-.034v-1.224h-2.686V146h2.788v-4.352c0-.697.493-1.921 1.989-1.921.221 0 .459.017.714.085l.119-2.448zm5.862 5.236c0 1.054-.629 1.734-1.751 1.734-.561 0-1.207-.221-1.207-.867 0-1.003 1.377-1.156 2.601-1.156h.357v.289zm-3.706-2.397c.51-.476 1.292-.867 2.091-.867.867 0 1.53.391 1.53 1.224v.136c-2.465 0-5.44.408-5.44 2.856 0 1.989 1.734 2.652 3.077 2.652 1.003 0 1.972-.408 2.397-1.105h.051V146h2.55v-4.267c0-3.077-1.054-4.471-3.893-4.471-1.377 0-2.788.493-3.774 1.428l1.411 1.513zM182.323 146v-5.236c0-1.7-.816-3.468-3.094-3.468-1.173 0-2.142.663-2.533 1.411h-.034v-1.173h-2.703V146h2.805v-4.59c0-.969.51-1.819 1.496-1.819 1.003 0 1.258.85 1.258 1.785V146h2.805z" fill="#1A1A1A"/><g style="mix-blend-mode:multiply" opacity=".4" filter="url(#a)"><path fill-rule="evenodd" clip-rule="evenodd" d="M37.561.974H18.974c-7.732 0-14 6.268-14 14v15.798h4V14.974c0-5.523 4.477-10 10-10h18.587v-4zM8.974 172.89h-4v15.222c0 7.732 6.268 14 14 14h18.587v-4H18.974c-5.523 0-10-4.477-10-10v-15.222zM255.8 30.807h1.212V14.974c0-7.732-6.268-14-14-14h-18.588v4h18.588c5.522 0 10 4.477 10 10v15.798h2.788v.035zm1.212 142.082h-4v15.222c0 5.523-4.478 10-10 10h-18.588v4h18.588c7.732 0 14-6.268 14-14v-15.222z" fill="#1A1A1A"/></g><path fill-rule="evenodd" clip-rule="evenodd" d="m134.586 64.586-12.728 12.728a2 2 0 0 0 2.828 2.828L134 70.828V100h4V70.828l9.314 9.314a2 2 0 1 0 2.828-2.828l-12.728-12.728a2 2 0 0 0-2.828 0z" fill="#C2C2C2"/><path fill-rule="evenodd" clip-rule="evenodd" d="M172.341 96H144v4h28.694v-.003c8.764-.168 15.816-7.326 15.816-16.13 0-8.743-6.955-15.862-15.634-16.125a16.19 16.19 0 0 0-3.99.371 31.277 31.277 0 0 0-.372-4.007C166.167 49.31 153.353 38 137.898 38c-11.262 0-21.121 6.005-26.55 14.989a30.884 30.884 0 0 0-1.847 3.556 23.302 23.302 0 0 0-12.093-3.361C84.48 53.184 74 63.664 74 76.592S84.48 100 97.408 100H138v-4H97.408C86.69 96 78 87.31 78 76.592c0-10.719 8.69-19.408 19.408-19.408 3.676 0 7.101 1.018 10.024 2.785l3.899 2.357 1.833-4.172C117.345 48.635 126.851 42 137.898 42c14.653 0 26.581 11.673 26.989 26.226l.136 4.836 4.724-1.042a12.198 12.198 0 0 1 2.631-.285c6.7 0 12.132 5.432 12.132 12.132 0 6.621-5.304 12.004-11.893 12.13l-.116.003h-.16z" fill="#C2C2C2"/><defs><filter id="a" x=".974" y=".974" width="260.036" height="209.137" filterUnits="userSpaceOnUse" color-interpolation-filters="sRGB"><feFlood flood-opacity="0" result="BackgroundImageFix"/><feColorMatrix in="SourceAlpha" values="0 0 0 0 0 0 0 0 0 0 0 0 0 0 0 0 0 0 127 0"/><feOffset dy="4"/><feGaussianBlur stdDeviation="2"/><feColorMatrix values="0 0 0 0 0 0 0 0 0 0 0 0 0 0 0 0 0 0 0.25 0"/><feBlend in2="BackgroundImageFix" result="effect1_dropShadow"/><feBlend in="SourceGraphic" in2="effect1_dropShadow" result="shape"/></filter></defs></svg>
